X:2058
T:Foxhunter's jig
O:england
C:Trad.
S: The Black Book
M:9/8
K:D
||FGF F2 D G2 E | FGF F2 D E2 D | FGF F2 D G2 B | AFD DEF E2D :|
|| B3 BAG FGA | B2 E E2 F G2 B | ABc dcB ABc |d2D DEF E2 D:|
|| fgf f2 d g2 e | fgf f2 d e2 d | fgf f2 d g2 b | afd def e2 d :|
|| gfe dcB AGA | B2 E E2 F G2 B | ABc dcB ABc | d2 D DEF E2 D :|


